public/icons/logo-g.svg

<svg width="48" height="74" viewBox="0 0 48 74" fill="none" xmlns="http://www.w3.org/2000/svg">
<path d="M6.1 72.1C4.3 70.9667 2.9 69.3667 1.9 67.3C0.900001 65.1667 0.433334 63.0333 0.5 60.9C0.433334 56.7667 0.766667 52.6 1.5 48.4C2.3 44.1333 3.33333 40 4.6 36C5.46667 33.6 6.4 31.1333 7.4 28.6C8.46667 26 9.53333 23.5667 10.6 21.3C11.6667 19.0333 12.6 17.2333 13.4 15.9C15.4667 12.5 17.6333 9.7 19.9 7.5C22.2333 5.23333 23.9667 3.76666 25.1 3.1C26.0333 2.56666 27.6333 2.03333 29.9 1.5C32.2333 0.966664 34.6333 0.999997 37.1 1.6C38.8333 2.06666 40.4333 2.63333 41.9 3.3C43.4333 3.96667 44.4333 4.53333 44.9 5C45.4333 5.8 45.9 6.5 46.3 7.1C46.7667 7.63333 47 8.3 47 9.1C47.0667 9.63333 46.8667 10.3 46.4 11.1C46 11.8333 45.4667 12.3667 44.8 12.7C44.2 13.0333 43.6 12.8667 43 12.2C42.1333 10.8667 41.2333 9.96667 40.3 9.5C39.3667 8.96666 38.3667 8.43333 37.3 7.9C36.5667 7.43333 35.5667 7.2 34.3 7.2C33.0333 7.13333 31.7333 7.26666 30.4 7.6C29.0667 7.93333 27.9 8.5 26.9 9.3C26.2333 9.9 25.3667 10.8 24.3 12C23.2333 13.1333 22.1667 14.4 21.1 15.8C20.0333 17.2 19.1667 18.5667 18.5 19.9C16.7 23.0333 15.0667 26.2 13.6 29.4C12.2 32.5333 11 35.9667 10 39.7C9.73333 40.6333 9.36667 42 8.9 43.8C8.5 45.6 8.1 47.4 7.7 49.2C7.3 51 7.03333 52.4667 6.9 53.6C6.43333 56.8667 6.26667 59.7333 6.4 62.2C6.6 64.6667 7.46667 66.3667 9 67.3C10.5333 68.2333 13.0667 68.1 16.6 66.9C18.1333 66.7 19.7667 66.0333 21.5 64.9C23.3 63.7667 25.0333 62.3667 26.7 60.7C28.4333 58.9667 29.9 57.1333 31.1 55.2C32.2333 53.0667 33.2333 50.9667 34.1 48.9C35.0333 46.8333 35.5333 45.1333 35.6 43.8C35.6667 42.4667 35.0333 41.8333 33.7 41.9C31.2333 41.6333 29.2333 41.5667 27.7 41.7C26.1667 41.7667 24.8 41.5333 23.6 41C23.1333 40.2667 22.9333 39.5333 23 38.8C23.0667 38.0667 23.4667 37.3333 24.2 36.6C24.9333 36.3333 26.1667 36.1333 27.9 36C29.6333 35.8667 31.5 35.9333 33.5 36.2C35.5 36.4 37.2667 36.8667 38.8 37.6C39.9333 38.1333 40.7333 38.9333 41.2 40C41.6667 41 41.9 42.1667 41.9 43.5C41.9 44.8333 41.7667 46.2 41.5 47.6C41.1667 49.0667 40.4333 50.8333 39.3 52.9C38.2333 54.9 36.9333 57.0333 35.4 59.3C34.4 60.7 33 62.2333 31.2 63.9C29.4667 65.5667 27.6667 67.0667 25.8 68.4C24 69.7333 22.4667 70.6333 21.2 71.1C18.5333 72.3 15.8 73.0667 13 73.4C10.2 73.8 7.9 73.3667 6.1 72.1Z" fill="white"/>
</svg>

<svg xmlns="http://www.w3.org/2000/svg" width="48" height="74" fill="none" viewBox="0 0 48 74"><path fill="#fff" d="M6.1 72.1c-1.8-1.133-3.2-2.733-4.2-4.8-1-2.133-1.467-4.267-1.4-6.4-.067-4.133.267-8.3 1-12.5.8-4.267 1.833-8.4 3.1-12.4.867-2.4 1.8-4.867 2.8-7.4 1.067-2.6 2.133-5.033 3.2-7.3 1.067-2.267 2-4.067 2.8-5.4 2.067-3.4 4.233-6.2 6.5-8.4 2.333-2.267 4.067-3.733 5.2-4.4.933-.533 2.533-1.067 4.8-1.6 2.333-.533 4.733-.5 7.2.1a31.172 31.172 0 0 1 4.8 1.7c1.533.667 2.533 1.233 3 1.7l1.4 2.1c.467.533.7 1.2.7 2 .067.533-.133 1.2-.6 2-.4.733-.933 1.267-1.6 1.6-.6.333-1.2.167-1.8-.5-.867-1.333-1.767-2.233-2.7-2.7a61.344 61.344 0 0 0-3-1.6c-.733-.467-1.733-.7-3-.7a13.167 13.167 0 0 0-3.9.4c-1.333.333-2.5.9-3.5 1.7-.667.6-1.533 1.5-2.6 2.7a47.874 47.874 0 0 0-3.2 3.8c-1.067 1.4-1.933 2.767-2.6 4.1-1.8 3.133-3.433 6.3-4.9 9.5-1.4 3.133-2.6 6.567-3.6 10.3-.267.933-.633 2.3-1.1 4.1l-1.2 5.4c-.4 1.8-.667 3.267-.8 4.4-.467 3.267-.633 6.133-.5 8.6.2 2.467 1.067 4.167 2.6 5.1 1.533.933 4.067.8 7.6-.4 1.533-.2 3.167-.867 4.9-2 1.8-1.133 3.533-2.533 5.2-4.2 1.733-1.733 3.2-3.567 4.4-5.5a76.544 76.544 0 0 0 3-6.3c.933-2.067 1.433-3.767 1.5-5.1.067-1.333-.567-1.967-1.9-1.9-2.467-.267-4.467-.333-6-.2-1.533.067-2.9-.167-4.1-.7-.467-.733-.667-1.467-.6-2.2.067-.733.467-1.467 1.2-2.2.733-.267 1.967-.467 3.7-.6 1.733-.133 3.6-.067 5.6.2 2 .2 3.767.667 5.3 1.4 1.133.533 1.933 1.333 2.4 2.4.467 1 .7 2.167.7 3.5 0 1.333-.133 2.7-.4 4.1-.333 1.467-1.067 3.233-2.2 5.3-1.067 2-2.367 4.133-3.9 6.4-1 1.4-2.4 2.933-4.2 4.6a48.282 48.282 0 0 1-5.4 4.5c-1.8 1.333-3.333 2.233-4.6 2.7-2.667 1.2-5.4 1.967-8.2 2.3-2.8.4-5.1-.033-6.9-1.3Z"/></svg>
